docs/img/icons/terms.svg

<svg width="48" height="48" viewBox="0 0 48 48" fill="none" xmlns="http://www.w3.org/2000/svg">
<g clip-path="url(#clip0)">
<path d="M16.6204 9.24805H8.22754C7.45081 9.24805 6.82129 9.87756 6.82129 10.6543C6.82129 11.431 7.45081 12.0605 8.22754 12.0605H16.6204C17.3967 12.0605 18.0266 11.431 18.0266 10.6543C18.0266 9.87756 17.3967 9.24805 16.6204 9.24805Z" fill="#FF5A30"/>
<path d="M16.6204 14.873H8.22754C7.45081 14.873 6.82129 15.5026 6.82129 16.2793C6.82129 17.056 7.45081 17.6855 8.22754 17.6855H16.6204C17.3967 17.6855 18.0266 17.056 18.0266 16.2793C18.0266 15.5026 17.3967 14.873 16.6204 14.873Z" fill="#FF5A30"/>
<path d="M16.6204 20.498H8.22754C7.45081 20.498 6.82129 21.1276 6.82129 21.9043C6.82129 22.681 7.45081 23.3105 8.22754 23.3105H16.6204C17.3967 23.3105 18.0266 22.681 18.0266 21.9043C18.0266 21.1276 17.3967 20.498 16.6204 20.498Z" fill="#FF5A30"/>
<path d="M16.6204 26.123H8.22754C7.45081 26.123 6.82129 26.7526 6.82129 27.5293C6.82129 28.306 7.45081 28.9355 8.22754 28.9355H16.6204C17.3967 28.9355 18.0266 28.306 18.0266 27.5293C18.0266 26.7526 17.3967 26.123 16.6204 26.123Z" fill="#FF5A30"/>
<path d="M16.6204 31.8438H8.22754C7.45081 31.8438 6.82129 32.4736 6.82129 33.25C6.82129 34.0267 7.45081 34.6562 8.22754 34.6562H16.6204C17.3967 34.6562 18.0266 34.0267 18.0266 33.25C18.0266 32.4736 17.3967 31.8438 16.6204 31.8438Z" fill="#FF5A30"/>
<path d="M21.3428 12.0605H29.7356C30.5123 12.0605 31.1418 11.431 31.1418 10.6543C31.1418 9.87756 30.5123 9.24805 29.7356 9.24805H21.3428C20.5664 9.24805 19.9365 9.87756 19.9365 10.6543C19.9365 11.431 20.5664 12.0605 21.3428 12.0605Z" fill="#FF5A30"/>
<path d="M21.3428 17.6855H29.7356C30.5123 17.6855 31.1418 17.056 31.1418 16.2793C31.1418 15.5026 30.5123 14.873 29.7356 14.873H21.3428C20.5664 14.873 19.9365 15.5026 19.9365 16.2793C19.9365 17.056 20.5664 17.6855 21.3428 17.6855Z" fill="#FF5A30"/>
<path d="M26.7913 21.9043C26.7913 21.1276 26.1617 20.498 25.385 20.498H21.3428C20.5664 20.498 19.9365 21.1276 19.9365 21.9043C19.9365 22.681 20.5664 23.3105 21.3428 23.3105H25.385C26.1617 23.3105 26.7913 22.681 26.7913 21.9043Z" fill="#FF5A30"/>
<path d="M40.1134 32.4364C39.5077 31.9504 38.6229 32.0474 38.1366 32.6532L34.5148 37.1685L32.2724 35.544C31.6437 35.0881 30.764 35.2287 30.3085 35.8575C29.8529 36.4867 29.9935 37.3659 30.6223 37.8215L33.9486 40.2315C34.1976 40.4117 34.4862 40.4992 34.7729 40.4992C35.1857 40.4992 35.5936 40.318 35.8705 39.9726L40.3305 34.4132C40.8165 33.8075 40.7195 32.9223 40.1134 32.4364Z" fill="#FF5A30"/>
<path d="M43.6674 28.1195C41.8356 26.2555 39.4819 25.0807 36.9316 24.7346V5.66345C36.9316 2.54077 34.3909 0 31.2682 0H6.69507C3.57202 0 1.03125 2.54077 1.03125 5.66345V38.239C1.03125 41.3621 3.57202 43.9028 6.6947 43.9028H26.4587C28.6827 46.5154 31.8805 48 35.3401 48C41.7799 48 47.0189 42.7573 47.0189 36.3131C47.0189 33.2281 45.8287 30.3182 43.6674 28.1195ZM3.84375 38.239V5.66345C3.84375 4.09167 5.12292 2.8125 6.69507 2.8125H31.2682C32.8403 2.8125 34.1191 4.09167 34.1191 5.66345V24.6899C28.251 25.3026 23.6613 30.2812 23.6613 36.3131C23.6613 37.9849 24.0099 39.6013 24.6786 41.09H6.69507C5.12292 41.09 3.84375 39.8112 3.84375 38.239ZM35.3401 45.1875C32.5316 45.1875 29.9498 43.8981 28.2561 41.6503C27.0901 40.1023 26.4734 38.257 26.4734 36.3131C26.4734 31.4198 30.4512 27.4387 35.3401 27.4387C35.3862 27.4387 35.4327 27.4395 35.4789 27.4402L35.5005 27.4406C37.8344 27.4819 40.0225 28.4231 41.6616 30.0908C43.3026 31.7604 44.2064 33.9705 44.2064 36.3131C44.2064 41.2064 40.229 45.1875 35.3401 45.1875Z" fill="#FF5A30"/>
</g>
<defs>
<clipPath id="clip0">
<rect width="48" height="48" fill="white"/>
</clipPath>
</defs>
</svg>

<svg width="48" height="48" fill="none" xmlns="http://www.w3.org/2000/svg"><g clip-path="url(#clip0)" fill="#FF5A30"><path d="M16.62 9.248H8.228a1.406 1.406 0 100 2.813h8.392a1.406 1.406 0 000-2.813zm0 5.625H8.228a1.406 1.406 0 100 2.813h8.392a1.406 1.406 0 000-2.813zm0 5.625H8.228a1.406 1.406 0 100 2.813h8.392a1.406 1.406 0 000-2.813zm0 5.625H8.228a1.406 1.406 0 100 2.813h8.392a1.406 1.406 0 000-2.813zm0 5.721H8.228a1.406 1.406 0 000 2.812h8.392a1.406 1.406 0 000-2.812zm4.723-19.784h8.393a1.406 1.406 0 100-2.812h-8.393a1.406 1.406 0 000 2.813zm0 5.626h8.393a1.406 1.406 0 100-2.813h-8.393a1.406 1.406 0 000 2.813zm5.448 4.218c0-.776-.63-1.406-1.406-1.406h-4.042a1.406 1.406 0 000 2.813h4.042c.777 0 1.406-.63 1.406-1.407zm13.322 10.532a1.406 1.406 0 00-1.976.217l-3.622 4.516-2.243-1.625a1.406 1.406 0 10-1.65 2.278l3.327 2.41a1.402 1.402 0 001.922-.26l4.46-5.559a1.406 1.406 0 00-.218-1.977z"/><path d="M43.667 28.12a11.598 11.598 0 00-6.735-3.385V5.663A5.67 5.67 0 0031.268 0H6.695a5.67 5.67 0 00-5.664 5.663V38.24a5.67 5.67 0 005.664 5.664h19.764A11.576 11.576 0 0035.34 48c6.44 0 11.679-5.243 11.679-11.687a11.62 11.62 0 00-3.352-8.194zM3.844 38.239V5.663a2.854 2.854 0 012.851-2.85h24.573a2.854 2.854 0 012.851 2.85V24.69c-5.868.613-10.458 5.591-10.458 11.623 0 1.672.349 3.288 1.018 4.777H6.695a2.854 2.854 0 01-2.851-2.851zm31.496 6.949a8.8 8.8 0 01-7.084-3.538 8.802 8.802 0 01-1.783-5.337c0-4.893 3.978-8.874 8.867-8.874l.139.001h.022a8.81 8.81 0 016.16 2.65 8.826 8.826 0 012.545 6.223c0 4.893-3.977 8.874-8.866 8.874z"/></g><defs><clipPath id="clip0"><path fill="#fff" d="M0 0h48v48H0z"/></clipPath></defs></svg>
